img/yandex.svg

<svg width="85" height="17" viewBox="0 0 85 17" fill="none" xmlns="http://www.w3.org/2000/svg">
  <path d="M5.47326 1.22459H4.49633C4.19475 1.22459 3.90349 1.28627 3.62133 1.41023C3.33857 1.53419 3.08736 1.7318 2.86891 2.00426C2.64925 2.27673 2.4745 2.62584 2.341 3.0534C2.20994 3.47976 2.1444 3.98996 2.1444 4.58399C2.1444 5.16485 2.21722 5.65768 2.36103 6.05949C2.50544 6.4619 2.69658 6.79305 2.93505 7.05354C3.17352 7.31283 3.44294 7.50146 3.74391 7.61883C4.04427 7.7368 4.35798 7.79548 4.68443 7.79548H5.47326V1.224V1.22459ZM1.71115 14.3119H0L3.04731 8.76079C2.15714 8.34041 1.52062 7.78051 1.13834 7.08109C0.756063 6.38226 0.564316 5.5499 0.564316 4.58399C0.564316 3.84145 0.671112 3.18634 0.884096 2.61686C1.09647 2.04798 1.38591 1.56892 1.74938 1.17848C2.11346 0.788052 2.53639 0.494628 3.01879 0.296418C3.5024 0.0988059 4.01271 0 4.55276 0H6.96051V14.3119H5.47326V9.00271H4.49633L1.71115 14.3119Z" fill="#FF0000"/>
  <path fill-rule="evenodd" clip-rule="evenodd" d="M21.8385 16.1683H20.5035V14.294H16.347V16.1683H15.0109V13.0868H15.5934C15.895 12.5299 16.1298 11.9299 16.2997 11.2861C16.4696 10.6424 16.597 9.99268 16.685 9.33697C16.773 8.68126 16.8258 8.03153 16.8452 7.3878C16.8646 6.74406 16.8737 6.13147 16.8737 5.54941V4.73381H21.0873V13.0874H21.8397V16.1683H21.8385ZM28.3475 13.8665C28.0338 14.0401 27.6861 14.191 27.3039 14.3216C26.9216 14.4515 26.4908 14.5162 26.015 14.5162C25.0369 14.5162 24.2529 14.115 23.6637 13.3102C23.0751 12.5059 22.7796 11.3736 22.7796 9.91304C22.7796 9.20762 22.8403 8.52976 22.9586 7.88063C23.0782 7.22971 23.2596 6.65484 23.5047 6.15362C23.7493 5.65181 24.0593 5.2494 24.4356 4.94699C24.8118 4.64399 25.2626 4.49189 25.7887 4.49189C26.5666 4.49189 27.194 4.87633 27.6698 5.64343C28.1467 6.40992 28.3858 7.54289 28.3858 9.04055V9.85735H24.3409C24.3409 10.8969 24.5193 11.7077 24.8767 12.2886C25.2347 12.8706 25.7954 13.1617 26.5605 13.1617C26.8488 13.1617 27.1467 13.1215 27.4537 13.0419C27.7614 12.9605 28.0029 12.8832 28.1782 12.8084L28.3481 13.8671L28.3475 13.8665ZM25.7323 5.68055C25.5199 5.68055 25.3318 5.75421 25.1679 5.90212C25.0053 6.05182 24.8676 6.25842 24.7553 6.52489C24.6419 6.79077 24.5539 7.10336 24.4914 7.46205C24.4289 7.82135 24.3846 8.21058 24.3597 8.63215H26.8427V8.42855C26.8427 8.36628 26.8397 8.29801 26.8336 8.22376C26.8275 8.1495 26.8239 8.06926 26.8239 7.98243C26.7735 7.25187 26.654 6.68538 26.4659 6.28297C26.2778 5.88176 26.0338 5.67996 25.7329 5.67996L25.7323 5.68055ZM19.6006 5.92128V13.0868H16.9113C17.1613 12.6784 17.3682 12.1958 17.5315 11.6388C17.6953 11.0819 17.8264 10.4909 17.9259 9.86633C18.0266 9.24116 18.0958 8.60401 18.1334 7.95369C18.171 7.30396 18.1898 6.68837 18.1898 6.10692V5.92128H19.6006ZM14.1456 4.73321V14.294H12.6589V9.7268H10.4399V14.2934H8.93506V4.73262H10.4399V8.50101H12.6595V4.73321H14.1462H14.1456ZM35.5338 14.294H33.859L31.5453 9.5783L31.3754 9.3747V14.2934H29.8706V4.73262H31.3754V9.07648L31.5453 8.89085L33.5963 4.73262H35.1946L32.8251 9.03935L35.5338 14.2928V14.294ZM37.4707 9.54117C37.4707 10.667 37.6466 11.552 37.9973 12.1958C38.3493 12.8395 38.8875 13.1611 39.6151 13.1611C39.8911 13.1611 40.1733 13.1209 40.4615 13.0413C40.7504 12.9599 40.9834 12.8826 41.1581 12.8078L41.3086 13.8665C41.0204 14.0401 40.6976 14.191 40.3402 14.3216C39.9822 14.4515 39.578 14.5162 39.1266 14.5162C38.1618 14.5162 37.3802 14.121 36.7844 13.3287C36.1897 12.5365 35.8912 11.3981 35.8912 9.91304C35.8912 9.09624 35.9761 8.3537 36.146 7.68541C36.3147 7.01713 36.5435 6.44765 36.8317 5.97757C37.1199 5.50809 37.4652 5.14281 37.8663 4.88292C38.2668 4.62303 38.7 4.49369 39.1648 4.49369C39.5774 4.49369 39.9512 4.54878 40.2837 4.66016C40.6157 4.77154 40.9136 4.92005 41.1769 5.10568L40.4051 6.38717C40.2291 6.18836 40.0319 6.02188 39.8123 5.88535C39.5938 5.74942 39.3711 5.68175 39.1448 5.68175C38.8821 5.68175 38.6436 5.79253 38.4306 6.0153C38.2182 6.23806 38.0423 6.52909 37.9039 6.88778C37.7662 7.24708 37.6594 7.65787 37.5841 8.12256C37.5089 8.58664 37.4713 9.05972 37.4713 9.54177L37.4707 9.54117ZM47.8043 12.073H48.5361L50.5446 4.70267C50.6939 4.14697 50.8255 3.60982 50.9936 2.86908H51.0695C51.0318 3.53617 50.9942 4.20266 50.9942 4.83322V14.1108H51.8947V0.868408H50.8437L48.5555 9.33218C48.4609 9.66572 48.3104 10.3693 48.2357 10.8694H48.1793C48.1229 10.3699 47.9912 9.68489 47.8978 9.33278L45.6271 0.868408H44.5386V14.1102H45.3638V4.83262C45.3638 4.16493 45.3456 3.49844 45.308 2.86848H45.3644C45.4773 3.47928 45.6278 4.07211 45.8153 4.75777L47.8031 12.0724L47.8043 12.073ZM55.8734 13.5922C56.7557 13.5922 57.3752 12.7598 57.712 11.7586V9.18487H56.6987C55.1416 9.18487 54.391 9.88849 54.391 11.5179C54.391 12.8329 54.9736 13.5922 55.8734 13.5922ZM57.9754 14.1108C57.9001 13.8701 57.8067 13.518 57.7509 12.8515C57.3 13.7407 56.624 14.2964 55.6859 14.2964C54.4105 14.2964 53.5282 13.2964 53.5282 11.5921C53.5282 9.59207 54.6356 8.55491 56.6811 8.55491H57.7126V7.3884C57.7126 5.962 57.1689 5.3506 56.1368 5.3506C55.3298 5.3506 54.598 5.72187 54.1477 6.3698L53.9038 5.53624C54.2788 5.05478 55.067 4.59129 56.1368 4.59129C57.6944 4.59129 58.5761 5.44342 58.5761 7.29558V12.3886C58.5761 13.0365 58.6707 13.7599 58.7824 14.1108H57.9754ZM63.2302 13.5922C64.4316 13.5922 65.2192 12.185 65.2192 9.23996C65.2192 6.79496 64.5439 5.35 63.4553 5.35C62.6106 5.35 61.8977 6.23926 61.485 7.23929V12.461C61.86 13.2215 62.3855 13.591 63.2302 13.591V13.5922ZM63.1737 14.2779C62.4614 14.2779 61.8418 13.9258 61.4857 13.4635V17.0001H60.6034V4.77633H61.3728L61.448 6.31351C61.8607 5.42426 62.5554 4.59069 63.6058 4.59069C65.1822 4.59069 66.1021 6.46142 66.1021 9.16571C66.1021 12.591 64.9383 14.2773 63.1743 14.2773L63.1737 14.2779ZM68.6731 9.27769L71.9571 14.1102H72.934L69.5924 9.11002L72.7077 4.77693H71.8448L68.6731 9.1663V4.77693H67.7908V14.1108H68.6725V9.27589L68.6731 9.27769ZM78.4691 12.5365L78.7507 13.2407C78.7507 13.2407 78.0383 14.2964 76.5371 14.2964C74.5286 14.2964 73.6094 12.5 73.6094 9.44356C73.6094 6.38717 74.7726 4.59069 76.3678 4.59069C78.0001 4.59069 79.0517 6.27638 78.7513 9.59087H74.4734C74.5098 12.1478 75.1864 13.5371 76.5565 13.5371C77.8126 13.5371 78.4697 12.5371 78.4704 12.5359L78.4691 12.5365ZM76.3672 5.31467C75.3721 5.31467 74.565 6.5734 74.491 8.90761H77.9255C78.0759 6.42489 77.3247 5.31467 76.3678 5.31467H76.3672ZM85 5.49911V4.77633H79.7452V5.49851H81.9418V14.1096H82.8229V5.49911H85Z" fill="#333333"/>
</svg>

<svg width="85" height="17" fill="none" xmlns="http://www.w3.org/2000/svg"><path d="M5.473 1.225h-.977c-.301 0-.593.061-.875.185a1.986 1.986 0 0 0-.752.594c-.22.273-.395.622-.528 1.05-.131.426-.197.936-.197 1.53 0 .58.073 1.074.217 1.475.144.403.336.734.574.995.239.259.508.447.809.565.3.118.614.176.94.176h.79V1.224zM1.711 14.312H0L3.047 8.76c-.89-.42-1.526-.98-1.909-1.68C.756 6.382.564 5.55.564 4.584c0-.743.107-1.398.32-1.967a4.278 4.278 0 0 1 .865-1.439c.364-.39.787-.683 1.27-.882A4.012 4.012 0 0 1 4.553 0H6.96v14.312H5.473v-5.31h-.977l-2.785 5.31z" fill="red"/><path fill-rule="evenodd" clip-rule="evenodd" d="M21.838 16.168h-1.335v-1.874h-4.156v1.874h-1.336v-3.081h.582a8.108 8.108 0 0 0 .707-1.8c.17-.645.297-1.294.385-1.95.088-.656.14-1.305.16-1.95.02-.643.029-1.256.029-1.838v-.815h4.213v8.353h.753v3.081h-.002zm6.51-2.301a6.475 6.475 0 0 1-1.044.455c-.382.13-.813.194-1.289.194-.978 0-1.762-.401-2.351-1.206-.589-.804-.884-1.936-.884-3.397 0-.705.06-1.383.179-2.032.12-.651.3-1.226.546-1.727.244-.502.554-.905.93-1.207.377-.303.828-.455 1.354-.455.778 0 1.405.384 1.88 1.151.478.767.717 1.9.717 3.398v.816H24.34c0 1.04.178 1.85.536 2.432.358.582.918.873 1.684.873.288 0 .586-.04.893-.12.307-.082.549-.159.724-.234l.17 1.06v-.002zM25.732 5.68c-.212 0-.4.073-.564.221-.163.15-.3.356-.413.623a4.26 4.26 0 0 0-.264.937c-.062.36-.106.749-.131 1.17h2.483V8.43c0-.063-.003-.131-.01-.205a2.943 2.943 0 0 1-.01-.242c-.05-.73-.169-1.297-.357-1.699-.188-.401-.432-.603-.733-.603zm-6.131.24v7.166h-2.69c.25-.409.457-.891.62-1.448.164-.557.295-1.148.395-1.773.1-.625.17-1.262.207-1.912.038-.65.057-1.266.057-1.847V5.92h1.41zm-5.455-1.188v9.561h-1.487V9.727h-2.22v4.566H8.936v-9.56h1.505V8.5h2.22V4.733h1.486zm21.388 9.561h-1.675l-2.314-4.716-.17-.203v4.918h-1.504v-9.56h1.504v4.343l.17-.185 2.051-4.158h1.599l-2.37 4.306 2.709 5.254v.001zm1.937-4.753c0 1.126.176 2.011.526 2.655.352.643.89.965 1.618.965.276 0 .558-.04.846-.12a5.92 5.92 0 0 0 .697-.233l.15 1.059a5.591 5.591 0 0 1-.968.455 3.54 3.54 0 0 1-1.213.194c-.965 0-1.747-.395-2.343-1.187-.594-.793-.893-1.93-.893-3.416 0-.817.085-1.56.255-2.228.169-.668.398-1.237.686-1.707.288-.47.633-.835 1.034-1.095.4-.26.834-.39 1.299-.39.412 0 .786.056 1.119.167.332.112.63.26.893.446l-.772 1.281a2.67 2.67 0 0 0-.593-.502 1.25 1.25 0 0 0-.667-.203c-.263 0-.501.11-.714.333a2.608 2.608 0 0 0-.527.873c-.138.36-.245.77-.32 1.235a8.859 8.859 0 0 0-.113 1.419zm10.333 2.532h.732l2.009-7.37c.149-.556.28-1.093.449-1.834h.075a35.504 35.504 0 0 0-.075 1.964v9.278h.9V.868h-1.05l-2.288 8.464a15.308 15.308 0 0 0-.32 1.537h-.057a12.85 12.85 0 0 0-.281-1.536L45.628.868h-1.09V14.11h.826V4.833c0-.668-.018-1.335-.056-1.965h.056c.113.611.264 1.204.451 1.89l1.988 7.314.001.001zm8.07 1.52c.882 0 1.501-.833 1.838-1.834V9.185h-1.013c-1.557 0-2.308.703-2.308 2.333 0 1.315.583 2.074 1.482 2.074zm2.101.518c-.075-.24-.168-.593-.224-1.26-.451.89-1.127 1.445-2.065 1.445-1.276 0-2.158-1-2.158-2.704 0-2 1.108-3.037 3.153-3.037h1.032V7.388c0-1.426-.544-2.037-1.576-2.037a2.39 2.39 0 0 0-1.99 1.019l-.243-.834c.375-.481 1.163-.945 2.233-.945 1.557 0 2.44.852 2.44 2.705v5.093c0 .648.094 1.37.205 1.722h-.807zm5.255-.519c1.202 0 1.99-1.407 1.99-4.352 0-2.445-.676-3.89-1.765-3.89-.844 0-1.557.89-1.97 1.89v5.221c.375.76.9 1.13 1.745 1.13v.001zm-.056.686a2.153 2.153 0 0 1-1.688-.815V17h-.883V4.776h.77l.075 1.538c.413-.89 1.107-1.723 2.158-1.723 1.576 0 2.496 1.87 2.496 4.575 0 3.425-1.164 5.111-2.928 5.111zm5.5-5l3.283 4.832h.977l-3.342-5 3.116-4.333h-.863l-3.172 4.39v-4.39h-.882v9.334h.882V9.276v.002zm9.795 3.258l.282.705s-.713 1.055-2.214 1.055c-2.008 0-2.928-1.796-2.928-4.852 0-3.057 1.164-4.853 2.759-4.853 1.632 0 2.684 1.685 2.383 5h-4.278c.037 2.557.713 3.946 2.084 3.946 1.256 0 1.913-1 1.913-1.001zm-2.102-7.221c-.995 0-1.802 1.258-1.876 3.593h3.434c.15-2.483-.6-3.593-1.557-3.593zM85 5.499v-.723h-5.255V5.5h2.197v8.61h.88V5.5H85z" fill="#333"/></svg>
